packages/icons/src/assets/metafield.svg

<svg width="16" height="16" viewBox="0 0 16 16" fill="none" xmlns="http://www.w3.org/2000/svg">
  <path d="M5.64453 3.18457C4.95386 3.15623 4.4572 3.24179 4.1543 3.44043C3.85142 3.62973 3.69928 3.9562 3.69922 4.41992V5.59863C3.69922 6.2329 3.52928 6.76345 3.18848 7.18945C2.84779 7.61527 2.40749 7.87499 1.86816 7.96973V7.99902C2.41699 8.09377 2.85725 8.35861 3.18848 8.79395C3.52918 9.21992 3.69922 9.75479 3.69922 10.3984V11.5625C3.69922 12.0358 3.85136 12.3725 4.1543 12.5713C4.45722 12.7699 4.95396 12.8545 5.64453 12.8262V14.1758H4.97754C4.45687 14.1758 3.98782 14.0664 3.57129 13.8486C3.15498 13.6404 2.82837 13.3421 2.5918 12.9541C2.3647 12.5755 2.25098 12.1448 2.25098 11.6621V10.4834C2.25096 10.1145 2.19875 9.80236 2.09473 9.54688C1.99059 9.28181 1.84363 9.07334 1.6543 8.92188C1.46501 8.77048 1.23342 8.69014 0.958984 8.68066H0.845703V7.31738H0.958984C1.23346 7.30791 1.46499 7.22662 1.6543 7.0752C1.84354 6.9238 1.9906 6.71605 2.09473 6.45117C2.19885 6.18612 2.25097 5.87337 2.25098 5.51367V4.33496C2.25098 3.84271 2.3646 3.40698 2.5918 3.02832C2.82841 2.6498 3.15493 2.35148 3.57129 2.13379C3.98782 1.91606 4.45687 1.80762 4.97754 1.80762H5.64453V3.18457ZM11.0254 1.80762C11.5461 1.80762 12.0151 1.91606 12.4316 2.13379C12.8481 2.35152 13.1703 2.64969 13.3975 3.02832C13.6341 3.40698 13.7519 3.84271 13.752 4.33496V5.51367C13.752 5.87337 13.8041 6.18612 13.9082 6.45117C14.0123 6.71606 14.1594 6.92379 14.3486 7.0752C14.5379 7.22662 14.7695 7.30788 15.0439 7.31738H15.1582V8.68066H15.0439C14.7695 8.69017 14.5379 8.77046 14.3486 8.92188C14.1593 9.07334 14.0123 9.28181 13.9082 9.54688C13.8042 9.80235 13.752 10.1145 13.752 10.4834V11.6621C13.752 12.1447 13.634 12.5755 13.3975 12.9541C13.1703 13.3421 12.848 13.6404 12.4316 13.8486C12.0151 14.0664 11.5461 14.1758 11.0254 14.1758H10.3584V12.8262C11.0494 12.8545 11.5467 12.7701 11.8496 12.5713C12.1524 12.3725 12.3037 12.0358 12.3037 11.5625V10.3984C12.3037 9.75471 12.4694 9.21994 12.8008 8.79395C13.1416 8.35848 13.5867 8.09369 14.1357 7.99902V7.96973C13.5961 7.87506 13.1553 7.61545 12.8145 7.18945C12.4737 6.76345 12.3037 6.23289 12.3037 5.59863V4.41992C12.3037 3.95636 12.1523 3.62975 11.8496 3.44043C11.5467 3.24165 11.0494 3.1562 10.3584 3.18457V1.80762H11.0254Z" fill="currentColor"/>
</svg>

<svg xmlns="http://www.w3.org/2000/svg" width="16" height="16" viewBox="0 0 16 16"><path d="M5.645 3.185q-1.037-.043-1.49.255-.456.284-.456.98v1.179q0 .951-.51 1.59-.512.639-1.32.78V8q.822.143 1.32.795.51.638.51 1.604v1.165q0 .71.455 1.008t1.49.255v1.35h-.666q-.782 0-1.407-.327a2.36 2.36 0 0 1-.98-.895 2.46 2.46 0 0 1-.34-1.292v-1.179q0-.553-.156-.936a1.47 1.47 0 0 0-.44-.625 1.14 1.14 0 0 0-.696-.241H.846V7.317h.113q.411-.014.695-.242.285-.226.44-.624a2.6 2.6 0 0 0 .157-.937V4.335q0-.738.34-1.307.356-.568.98-.894a3 3 0 0 1 1.407-.326h.667zm5.38-1.377q.782 0 1.407.326.624.327.966.894.354.569.354 1.307v1.179q0 .54.156.937t.44.624q.285.228.696.242h.114v1.364h-.114q-.411.015-.695.24-.285.227-.44.626-.157.383-.157.936v1.18q0 .723-.354 1.291-.342.582-.966.895a3 3 0 0 1-1.407.327h-.667v-1.35q1.037.043 1.492-.255.453-.298.454-1.008v-1.165q0-.965.497-1.604.51-.653 1.335-.795v-.03a2.1 2.1 0 0 1-1.321-.78q-.511-.639-.511-1.59v-1.18q0-.695-.454-.979-.454-.298-1.492-.255V1.808z"/></svg>
